/* XPM */
static const char * alarm_xpm[] = {
"32 32 4 1",
" 	c None",
"#	c #D82222",
".	c #FF8080",
"+	c #3A3A3A",
"                                ",
"                                ",
"                                ",
"                                ",
"               ##               ",
"               ##               ",
"            #########           ",
"           ###########          ",
"          #############         ",
"    +    ##.############   +    ",
"   +     ##.############    +   ",
"        ###.#############       ",
"  +     ###.#############    +  ",
"       ####.##############      ",
"  +    ####.##############   +  ",
"       ####.##############      ",
"   +  #####.############### +   ",
"    + #####.###############+    ",
"      #####.###############     ",
"     #######################    ",
"     #######################    ",
"    #########################   ",
"     #######################    ",
"     #######################    ",
"                                ",
"             #######            ",
"             #######            ",
"              #####             ",
"                                ",
"                                ",
"                                ",
"                                "};
