/* XPM */
static const char * meter_xpm[] = {
"32 32 5 1",
" 	c None",
".	c #3A3A3A",
"#	c #1C1C1C",
"@	c #F0F0F0",
"+	c #D82222",
"                                ",
"                                ",
"  ............................  ",
" .############################. ",
" .############################. ",
" .#####@@@@@@@@@@@@@@@@@#####.  ",
" .###@@####################@@#. ",
" .##@######################@##. ",
" .#@########################@#. ",
" .#@##@#####@#####@#####@###@#. ",
" .#@##@#####@#####@#####@###@#. ",
" .############@#############+#. ",
" .############@#############+#. ",
" .###########@##############+#. ",
" .###########@###############.  ",
" .###########@################. ",
" .##########@#################. ",
" .##########@#################. ",
" .#########@##################. ",
" .#########@##################. ",
" .########@###################. ",
" .########@###################. ",
" .#######@####################. ",
" .#######@####################. ",
" .######@#####################. ",
" .######@#####################. ",
" .###########@@@##############. ",
" .##########@@@@@#############. ",
" .############################. ",
"  ............................  ",
"                                ",
"                                "};
