/* XPM */
static const char * scpi_xpm[] = {
"32 32 3 1",
" 	c None",
"#	c #2F5F9F",
".	c #DDE8F5",
"                                ",
"                                ",
"                                ",
"                                ",
"   ##########################   ",
"   ##########################   ",
"   ##......................##   ",
"   ##......................##   ",
"   ##......................##   ",
"   ##...#..................##   ",
"   ##....#.................##   ",
"   ##.....#................##   ",
"   ##......#...............##   ",
"   ##.....#................##   ",
"   ##....#.................##   ",
"   ##...#..................##   ",
"   ##.........#######......##   ",
"   ##.........#######......##   ",
"   ##......................##   ",
"   ##......................##   ",
"   ##########################   ",
"   ##########################   ",
"             ######             ",
"             ######             ",
"             ######             ",
"         ##############         ",
"         ############## ##      ",
"                        ##      ",
"                        ##      ",
"                        ####### ",
"                        ####### ",
"                                "};
