/* XPM */
static const char * table_xpm[] = {
"32 32 5 1",
" 	c None",
".	c #3A3A3A",
"#	c #1C1C1C",
"@	c #D0D0D0",
"+	c #00B506",
"                                ",
"                                ",
"                                ",
"  ............................  ",
"  ............................  ",
"  ............................  ",
"  ............................  ",
"  ............................  ",
"  .#########.########.#######.  ",
"  .#@@@@@@@#.#++++++#.#@@@@##.  ",
"  .#########.########.#######.  ",
"  ............................  ",
"  .#########.########.#######.  ",
"  .#@@@@@@@#.#++++++#.#@@@@##.  ",
"  .#########.########.#######.  ",
"  ............................  ",
"  .#########.########.#######.  ",
"  .#@@@@@@@#.#++++++#.#@@@@##.  ",
"  .#########.########.#######.  ",
"  ............................  ",
"  .#########.########.#######.  ",
"  .#@@@@@@@#.#++++++#.#@@@@##.  ",
"  .#########.########.#######.  ",
"  ............................  ",
"  .#########.########.#######.  ",
"  .#@@@@@@@#.#++++++#.#@@@@##.  ",
"  .#########.########.#######.  ",
"  .#########.########.#######.  ",
"  ............................  ",
"                                ",
"                                ",
"                                "};
